packages/icons/svgs/duotone/arrow-down-duotone.svg

<svg width="24" height="24" viewBox="0 0 24 24" fill="none" xmlns="http://www.w3.org/2000/svg">
<path opacity="0.5" fill-rule="evenodd" clip-rule="evenodd" d="M12 1C12.5523 1 13 1.44772 13 2V22C13 22.5523 12.5523 23 12 23C11.4477 23 11 22.5523 11 22V2C11 1.44772 11.4477 1 12 1Z" fill="black"/>
<path fill-rule="evenodd" clip-rule="evenodd" d="M4.29289 14.2929C4.68342 13.9024 5.31658 13.9024 5.70711 14.2929L12 20.5858L18.2929 14.2929C18.6834 13.9024 19.3166 13.9024 19.7071 14.2929C20.0976 14.6834 20.0976 15.3166 19.7071 15.7071L12.7071 22.7071C12.3166 23.0976 11.6834 23.0976 11.2929 22.7071L4.29289 15.7071C3.90237 15.3166 3.90237 14.6834 4.29289 14.2929Z" fill="black"/>
</svg>

<svg width="24" height="24" viewBox="0 0 24 24" xmlns="http://www.w3.org/2000/svg"><path opacity=".5" fill-rule="evenodd" clip-rule="evenodd" d="M12 1a1 1 0 0 1 1 1v20a1 1 0 1 1-2 0V2a1 1 0 0 1 1-1Z"/><path fill-rule="evenodd" clip-rule="evenodd" d="M4.293 14.293a1 1 0 0 1 1.414 0L12 20.586l6.293-6.293a1 1 0 0 1 1.414 1.414l-7 7a1 1 0 0 1-1.414 0l-7-7a1 1 0 0 1 0-1.414Z"/></svg>
